icons/expo.svg

<!--
  - The MIT License (MIT)
  -
  - Copyright (c) 2015-2024 Elior "Mallowigi" Boukhobza
  -
  - Permission is hereby granted, free of charge, to any person obtaining a copy
  - of this software and associated documentation files (the "Software"), to deal
  - in the Software without restriction, including without limitation the rights
  - to use, copy, modify, merge, publish, distribute, sublicense, and/or sell
  - copies of the Software, and to permit persons to whom the Software is
  - furnished to do so, subject to the following conditions:
  -
  - The above copyright notice and this permission notice shall be included in all
  - copies or substantial portions of the Software.
  -
  - THE SOFTWARE IS PROVIDED "AS IS", WITHOUT WARRANTY OF ANY KIND, EXPRESS OR
  - IMPLIED, INCLUDING BUT NOT LIMITED TO THE WARRANTIES OF MERCHANTABILITY,
  - FITNESS FOR A PARTICULAR PURPOSE AND NONINFRINGEMENT. IN NO EVENT SHALL THE
  - AUTHORS OR COPYRIGHT HOLDERS BE LIABLE FOR ANY CLAIM, DAMAGES OR OTHER
  - LIABILITY, WHETHER IN AN ACTION OF CONTRACT, TORT OR OTHERWISE, ARISING FROM,
  - OUT OF OR IN CONNECTION WITH THE SOFTWARE OR THE USE OR OTHER DEALINGS IN THE
  - SOFTWARE.
  -
  -->

<svg  version="1.1" xmlns="http://www.w3.org/2000/svg" viewBox="0 0 457 512" width="16px" height="16px">
  <path fill="#246dad" data-iconColor="Expo"
        d="M365.9082336,248.5854492c34.2052002,2.3467102,61.6148682-19.7375793,68.6870728-50.1881409c-12.3980713-17.5686798-38.4007263-25.9117737-61.3349304-11.3552094C352.6391907,201.6428375,347.0135193,227.1673279,365.9082336,248.5854492z M273.3049316,10.7320032l-123.79422,68.3732529l28.6268005,15.0189133L301.8263245,25.960928L273.3049316,10.7320032z M155.8431091,198.7901917L276.7849426,474.769043l32.2889099,19.8341064L173.8461609,102.9160767l-32.211441-17.2691956L12.869606,328.6029968l23.4977913,13.1870422L147.365036,197.7696533C149.7934418,195.0509644,153.8549042,194.9626617,155.8431091,198.7901917z M371.8318176,264.4114685c-35.1719666-19.3618011-35.1719971-68.029129,0-87.3909454s79.3757019,4.9718628,79.3757019,43.6954803S407.0038147,283.7732849,371.8318176,264.4114685z M411.7871094,300.8228149c0,0,45.0594177,131.3694153,45.0594177,131.3694153L319.2476196,512c0,0-50.638855-31.4296875-50.638855-31.4296875l-90.680481-206.7342834L37.6093445,352.8883057c0,0-37.6093445-21.1496887-37.6093445-21.1496887L136.0769653,75.7921677c0,0,137.0354004-75.7921677,137.0354004-75.7921677L315.81604,22.9367638l43.2412109,126.422226C275.4977417,195.4290466,317.491333,312.2324219,411.7871094,300.8228149z"/>
</svg>

<svg xmlns="http://www.w3.org/2000/svg" viewBox="0 0 457 512"><path fill="#246dad" d="M365.908 248.585c34.205 2.347 61.615-19.737 68.687-50.188-12.398-17.568-38.4-25.911-61.335-11.355-20.62 14.6-26.246 40.125-7.352 61.543M273.305 10.732 149.51 79.105l28.627 15.02L301.826 25.96zM155.843 198.79l120.942 275.98 32.289 19.834-135.228-391.687-32.211-17.27L12.87 328.604l23.497 13.187 110.998-144.02c2.428-2.719 6.49-2.807 8.478 1.02m215.989 65.621c-35.172-19.361-35.172-68.029 0-87.39s79.376 4.971 79.376 43.695-44.204 63.057-79.376 43.695m39.955 36.412 45.06 131.37L319.247 512l-50.638-31.43-90.68-206.734-140.32 79.052L0 331.738 136.077 75.793 273.112 0l42.704 22.937 43.241 126.422c-83.56 46.07-41.566 162.873 52.73 151.464" data-iconColor="Expo"/></svg>
